icons/chevrons-left-16.svg

<svg width="16" height="16" viewBox="0 0 16 16" fill="none" xmlns="http://www.w3.org/2000/svg">
<path fill-rule="evenodd" clip-rule="evenodd" d="M7.74895 3.10823C8.08368 3.44296 8.08368 3.98568 7.74895 4.32041L4.06933 8.00003L7.74895 11.6797C8.08368 12.0144 8.08368 12.5571 7.74895 12.8918C7.41421 13.2266 6.8715 13.2266 6.53677 12.8918L2.25105 8.60613C1.91632 8.27139 1.91632 7.72868 2.25105 7.39394L6.53677 3.10823C6.8715 2.77349 7.41421 2.77349 7.74895 3.10823Z" fill="#272431"/>
<path fill-rule="evenodd" clip-rule="evenodd" d="M13.7489 3.10823C14.0837 3.44296 14.0837 3.98568 13.7489 4.32041L10.0693 8.00003L13.7489 11.6797C14.0837 12.0144 14.0837 12.5571 13.7489 12.8918C13.4142 13.2266 12.8715 13.2266 12.5368 12.8918L8.25105 8.60613C7.91632 8.27139 7.91632 7.72868 8.25105 7.39394L12.5368 3.10823C12.8715 2.77349 13.4142 2.77349 13.7489 3.10823Z" fill="#272431"/>
</svg>

<svg xmlns="http://www.w3.org/2000/svg" width="16" height="16" viewBox="0 0 16 16"><path fill-rule="evenodd" d="M7.749 3.108a.857.857 0 010 1.212L4.069 8l3.68 3.68a.857.857 0 11-1.212 1.212L2.25 8.606a.857.857 0 010-1.212l4.286-4.286a.857.857 0 011.212 0z"/><path fill-rule="evenodd" d="M13.749 3.108a.857.857 0 010 1.212L10.069 8l3.68 3.68a.857.857 0 11-1.212 1.212L8.25 8.606a.857.857 0 010-1.212l4.286-4.286a.857.857 0 011.212 0z"/></svg>
